X:1
T:Title
%%score 1 ( 2 3 )
L:1/8
Q:1/4=98
M:3/4
K:D
V:1 treble nm="Grand Piano, Soprano"
V:2 bass nm="Choir Pad, Gujarat, Kirkpatrick, 1885"
V:3 bass 
V:1
 [FA]>[GB] [FA]2 [DF]2 | [FA]>[GB] [FA]2 [DF]2 | [FA]>[GB] [FA]2 [DF]2 | D2 [CE]4 | %4
w: By~William~James~Kirkpatrick,~1882 * * *||||
 [FA]>[GB] [FA]2 [DF]2 | [FA]>[GB] [FA]2 [DF]2 | [Fd]>[Fd] [Ec]4 | [DB]2 [CA]4 | %8
w: ||||
 [GA]>[GA] [Fd]3 [Fd] | [Ac][GB] [FA]2 [DF]2 | [FA]>[FA] [GB]4 | [Gd]2 [Ec]4 | %12
w: ||||
 [GA]>[GA] [Fd]3 [Fd] | [Ac][GB] [FA]2 [DF]2 | [FA]>[FA] [GB]4 | [Gc]2 [Fd]4- | [Fd]4 z2 |] %17
w: |||||
V:2
 [D,D]>[D,D] [D,D]2 [D,A,]2 | [D,D]>[D,D] [D,D]2 [D,A,]2 | [D,D]>[D,D] D2 A,2 | [F,A,]2 A,4 | %4
 [D,A,]>[D,D] [D,D]2 [D,A,]2 | [D,D]>[D,D] [D,D]2 [D,A,]2 | [D,A,]>[D,A,] [E,A,]4 | %7
 [E,^G,]2 [A,,A,]4 | A,>A, [D,A,]3 [D,A,] | [D,A,][D,D] [D,D]2 [D,A,]2 | [D,D]>[D,D] [G,D]4 | %11
 [G,B,]2 A,4 | [A,C]>[A,C] [D,A,]3 [D,A,] | [D,A,][D,D] [D,D]2 [D,A,]2 | [D,D]>[D,D] [G,D]4 | %15
 A,2 [D,A,]4- | [D,A,]4 z2 |] %17
V:3
 x6 | x6 | z2 D,4 | x6 | x6 | x6 | x6 | x6 | x6 | x6 | x6 | x6 | x6 | x6 | x6 | x6 | x6 |] %17

